X:81
T:He Played his Ukulele as the Ship Went Down
T:The Wreck of the Nancy Lee
Z:Jack Campin, http://www.campin.me.uk/
F:Jack Campin's Nine-Note Tunebook
% last edit 21-06-2014
C:Arthur Le Clerc, 1932
M:2/2
L:1/8
Q:1/2=104
K:F
cB |A2c2 F2A2|G2B2 D2GF|E2G2 C2E2| FEFG A2
cB |A2c2 F2A2|G2B2 D2GA|BAGF ECDE| F2F2 F2:|
z2 |D2F2 A2d2|B4   A4  |D2F2 A2d2|=BAB2 c2
c_B|A2c2 F2A2|G2B2 D2GA|BAGF ECDE| F2F2 F2:|

